packages/kaspersky-hexa-ui-icons/src/iconsSVGs/24/MiniProfile.svg

<svg width="24" height="24" viewBox="0 0 24 24" fill="none" xmlns="http://www.w3.org/2000/svg">
<path fill-rule="evenodd" clip-rule="evenodd" d="M8.50025 13C9.88077 13.0002 11.0002 14.1194 11.0002 15.5V18.5C11.0002 19.8806 9.88077 20.9998 8.50025 21H5.50025C4.11953 21 3.00025 19.8807 3.00025 18.5V15.5C3.00025 14.1193 4.11953 13 5.50025 13H8.50025ZM5.50025 15C5.2241 15 5.00025 15.2239 5.00025 15.5V18.5C5.00025 18.7761 5.2241 19 5.50025 19H8.50025C8.7762 18.9998 9.00025 18.776 9.00025 18.5V15.5C9.00025 15.224 8.7762 15.0002 8.50025 15H5.50025Z" fill="black"/>
<path fill-rule="evenodd" clip-rule="evenodd" d="M18.5002 13C19.8808 13.0002 21.0002 14.1194 21.0002 15.5V18.5C21.0002 19.8806 19.8808 20.9998 18.5002 21H15.5002C14.1195 21 13.0002 19.8807 13.0002 18.5V15.5C13.0002 14.1193 14.1195 13 15.5002 13H18.5002ZM15.5002 15C15.2241 15 15.0002 15.2239 15.0002 15.5V18.5C15.0002 18.7761 15.2241 19 15.5002 19H18.5002C18.7762 18.9998 19.0002 18.776 19.0002 18.5V15.5C19.0002 15.224 18.7762 15.0002 18.5002 15H15.5002Z" fill="black"/>
<path fill-rule="evenodd" clip-rule="evenodd" d="M18.5002 3C19.8808 3.00021 21.0002 4.11942 21.0002 5.5V8.5C21.0002 9.88058 19.8808 10.9998 18.5002 11H15.5002C14.1195 11 13.0002 9.88071 13.0002 8.5V5.5C13.0002 4.11929 14.1195 3 15.5002 3H18.5002ZM15.5002 5C15.2241 5 15.0002 5.22386 15.0002 5.5V8.5C15.0002 8.77614 15.2241 9 15.5002 9H18.5002C18.7762 8.99979 19.0002 8.77601 19.0002 8.5V5.5C19.0002 5.22399 18.7762 5.00021 18.5002 5H15.5002Z" fill="black"/>
<path d="M6.0188 7.21191C6.44665 6.44176 7.55382 6.44177 7.98169 7.21191L8.24634 7.68848C8.39105 7.94895 8.5718 8.18772 8.78247 8.39844L9.12036 8.73633C9.90108 9.51705 9.20458 10.8382 8.11939 10.6348L7.59107 10.5352C7.20061 10.462 6.79988 10.462 6.40943 10.5352L5.8811 10.6348C4.79591 10.8382 4.09941 9.51705 4.88013 8.73633L5.21802 8.39844C5.42869 8.18771 5.60944 7.94895 5.75415 7.68848L6.0188 7.21191Z" fill="black"/>
<path d="M3.03638 5.64062C3.56234 5.33709 4.28821 5.60944 4.65747 6.24902C5.02665 6.88863 4.89922 7.65339 4.37329 7.95703C3.84734 8.26052 3.12145 7.98819 2.7522 7.34863C2.383 6.70902 2.51045 5.94427 3.03638 5.64062Z" fill="black"/>
<path d="M9.34302 6.24902C9.71226 5.60963 10.4372 5.3373 10.9631 5.64062C11.4891 5.94429 11.6166 6.709 11.2473 7.34863C10.878 7.98827 10.1522 8.2607 9.62622 7.95703C9.10026 7.65336 8.97372 6.88866 9.34302 6.24902Z" fill="black"/>
<path d="M5.34204 3.36523C5.91092 3.2339 6.51227 3.73636 6.68579 4.4873C6.85921 5.23845 6.53894 5.95458 5.96997 6.08594C5.40106 6.21714 4.79962 5.71395 4.62622 4.96289C4.45295 4.21185 4.77314 3.49658 5.34204 3.36523Z" fill="black"/>
<path d="M7.3147 4.4873C7.48822 3.73637 8.08958 3.23391 8.65845 3.36523C9.22735 3.49658 9.54755 4.21184 9.37427 4.96289C9.20087 5.71396 8.59943 6.21715 8.03052 6.08594C7.46155 5.95458 7.14128 5.23845 7.3147 4.4873Z" fill="black"/>
</svg>

<svg xmlns="http://www.w3.org/2000/svg" width="24" height="24" fill="none" viewBox="0 0 24 24"><path fill="#000" fill-rule="evenodd" d="M18.5004 3c1.3806.0002 2.5 1.1194 2.5 2.5v3c0 1.3806-1.1194 2.4998-2.5 2.5h-3c-1.3807 0-2.5-1.1193-2.5-2.5v-3c0-1.3807 1.1193-2.5 2.5-2.5zm-13.1582.3652c.5689-.1313 1.1703.3712 1.3438 1.1221.1734.7511-.1469 1.4673-.7158 1.5986s-1.1704-.372-1.3438-1.123.147-1.4663.7158-1.5977M7.315 4.4873c.1735-.751.7749-1.2534 1.3437-1.122.569.1313.8891.8465.7159 1.5976-.1734.751-.7749 1.2543-1.3438 1.123s-.8892-.8475-.7158-1.5986M15.5004 5a.5.5 0 0 0-.5.5v3a.5.5 0 0 0 .5.5h3c.276-.0002.5-.224.5-.5v-3a.5003.5003 0 0 0-.5-.5zm-12.4638.6406c.526-.3035 1.2518-.0312 1.621.6084s.2418 1.4044-.2841 1.708-1.2519.0312-1.6211-.6084-.2418-1.4043.2842-1.708m6.3066.6084c.3692-.6394 1.0942-.9117 1.6201-.6084.526.3037.6535 1.0684.2842 1.708-.3693.6397-1.0951.9121-1.6211.6084s-.6525-1.0683-.2832-1.708m-1.3613.963c-.4279-.7702-1.535-.7702-1.963 0l-.2646.4765a3.2 3.2 0 0 1-.5361.71l-.3379.3378c-.7807.7807-.0842 2.1019 1.001 1.8985l.5283-.0996a3.21 3.21 0 0 1 1.1817 0l.5283.0996c1.0852.2034 1.7817-1.1178 1.001-1.8985l-.338-.3379a3.2 3.2 0 0 1-.536-.71zM18.5004 13c1.3806.0002 2.5 1.1194 2.5 2.5v3c0 1.3806-1.1194 2.4998-2.5 2.5h-3c-1.3807 0-2.5-1.1193-2.5-2.5v-3c0-1.3807 1.1193-2.5 2.5-2.5zm-7.5 2.5c0-1.3806-1.1194-2.4998-2.5-2.5h-3c-1.3807 0-2.5 1.1193-2.5 2.5v3c0 1.3807 1.1193 2.5 2.5 2.5h3c1.3806-.0002 2.5-1.1194 2.5-2.5zm4.5-.5a.5.5 0 0 0-.5.5v3a.5.5 0 0 0 .5.5h3c.276-.0002.5-.224.5-.5v-3a.5003.5003 0 0 0-.5-.5zm-10.5.5a.5.5 0 0 1 .5-.5h3c.276.0002.5.224.5.5v3c0 .276-.224.4998-.5.5h-3a.5.5 0 0 1-.5-.5z"/></svg>
